public/piece/caliente/bN.svg

<svg xmlns="http://www.w3.org/2000/svg" xmlns:xlink="http://www.w3.org/1999/xlink" viewBox="0 0 16.933329 16.933331"><defs><linearGradient id="c"><stop offset="0" stop-opacity=".2"/></linearGradient><linearGradient id="b" gradientTransform="scale(.07)"><stop offset="0" stop-color="#8c8c8c"/></linearGradient><linearGradient id="a" gradientTransform="matrix(.07 0 0 .07 -53.975025 2.1166665)"><stop offset="0" stop-color="#595959"/></linearGradient><linearGradient xlink:href="#a" id="e" x1="4.0848351" x2="13.229165" y1="8.8635406" y2="8.8635406" gradientUnits="userSpaceOnUse"/><linearGradient xlink:href="#b" id="g" x1="4.7624993" x2="10.583332" y1="11.509374" y2="11.509374" gradientUnits="userSpaceOnUse"/><linearGradient xlink:href="#b" id="f" x1="4.2333326" x2="9.8979397" y1="5.953124" y2="5.953124" gradientUnits="userSpaceOnUse"/><linearGradient xlink:href="#c" id="d" x1="4.2333326" x2="103.04872" y1="24.341663" y2="24.341663" gradientTransform="matrix(1 0 0 1.25 .79374989 -3.0427069)" gradientUnits="userSpaceOnUse"/></defs><path fill="url(#d)" d="M5.0270826 14.816665c0 .992188 2.645833 1.322916 4.2333328 1.322916 1.5874976 0 4.2333306-.330728 4.2333306-1.322916 0-.992187-2.778792-1.322916-4.2333306-1.322916-1.4545399 0-4.2333328.330729-4.2333328 1.322916z" class="UnoptimicedTransforms" style="font-variation-settings:normal;-inkscape-stroke:none" transform="matrix(1.09375 0 0 1 -1.265043 0)"/><g transform="translate(.000003 .000004)"><path fill="url(#e)" d="M4.7624993 14.287498c1.5874998.529167 3.7041663.529167 3.7041663.529167s2.1166664 0 3.7041664-.529167c-.79375-2.38125 1.058333-3.968749 1.058333-6.3499991 0-3.9687494-4.7624995-5.0270826-4.7624995-5.0270826v1.3229164S4.4979159 7.143749 4.2333327 7.4083323c-.2645832.2645833-.1183253.5570994 0 .7937499.2645833.5291666.5291666.7937499.7937499 1.0583332.2645833.2645833.5291666.2645833.7937499 0 .2645833-.2645833.7937499-.5291666 1.0583332-.5291666.2645833 0 1.0583332.2645833 1.3229165.2645833.2645833 0 1.3229165-.2645833 1.8520828-.7937499-1.3229162 1.3229165-2.1166661 1.3229165-2.910416 1.8520828-.7937499.529167-2.3812497 2.116667-2.3812497 4.233333Z"/><path fill="url(#f)" d="M8.4666655 3.1749996c1.3229165 1.0583331 1.8520835 1.852083 1.0583332 2.3812496-.7937499.5291666-2.645833.7937499-4.7624994 3.1749996l-.5291666-1.3229165 4.2333328-3.1749996"/><path fill="url(#g)" d="m6.6145824 14.816665-1.8520831-.529167c0-2.116666 1.5874998-3.968749 2.3812497-4.4979164.7937499-.5291663 2.1166666-.2645829 3.439583-1.5874994 0 .5291666-1.8520833 1.8520828-2.3812498 2.3812498-.7937499.79375-1.5874998 2.645833-1.5874998 4.233333z"/><path fill="none" stroke="#000" stroke-linecap="round" stroke-linejoin="round" stroke-width="1.05833" d="M4.7624993 14.287498c1.5874998.529167 3.7041663.529167 3.7041663.529167s2.1166664 0 3.7041664-.529167c-.79375-2.38125 1.058333-3.968749 1.058333-6.3499991 0-3.9687494-4.7624995-5.0270826-4.7624995-5.0270826v1.3229164S4.4979159 7.143749 4.2333327 7.4083323c-.2645832.2645833-.1183253.5570994 0 .7937499.2645833.5291666.5291666.7937499.7937499 1.0583332.2645833.2645833.5291666.2645833.7937499 0 .2645833-.2645833.7937499-.5291666 1.0583332-.5291666.2645833 0 1.0583332.2645833 1.3229165.2645833.2645833 0 1.3229165-.2645833 1.8520828-.7937499-1.3229162 1.3229165-2.1166661 1.3229165-2.910416 1.8520828-.7937499.529167-2.3812497 2.116667-2.3812497 4.233333Z"/><ellipse cx="8.7312489" cy="6.0854158" rx=".52916664" ry=".52916658"/><path fill="none" stroke="#000" stroke-linejoin="round" stroke-width="1.05833" d="M11.906248 12.699998c-1.322916.529167-3.4395825.529167-3.4395825.529167s-1.8520831.000001-3.1749996-.529166"/></g></svg>

<?xml version="1.0" encoding="UTF-8" standalone="no"?>
<!-- Created with Inkscape (http://www.inkscape.org/) -->

<svg
   width="63.999992"
   height="64"
   viewBox="0 0 16.933329 16.933331"
   version="1.1"
   id="svg5"
   xmlns:xlink="http://www.w3.org/1999/xlink"
   xmlns="http://www.w3.org/2000/svg"
   xmlns:svg="http://www.w3.org/2000/svg"
   xmlns:rdf="http://www.w3.org/1999/02/22-rdf-syntax-ns#"
   xmlns:cc="http://creativecommons.org/ns#">
  <defs
     id="defs2">
    <linearGradient
       id="wood_black_accent">
      <stop
         style="stop-color:#ba845f;stop-opacity:1;"
         offset="0"
         id="stop5970" />
    </linearGradient>
    <linearGradient
       id="wood_black_fill">
      <stop
         style="stop-color:#995e33;stop-opacity:1;"
         offset="0"
         id="stop5940" />
    </linearGradient>
    <linearGradient
       id="wood_white_shade">
      <stop
         style="stop-color:#d0b793;stop-opacity:1;"
         offset="0"
         id="stop3347" />
    </linearGradient>
    <linearGradient
       id="wood_white_fill">
      <stop
         style="stop-color:#f9e7d2;stop-opacity:1;"
         offset="0"
         id="stop3028" />
    </linearGradient>
    <linearGradient
       id="white_fill">
      <stop
         style="stop-color:#ffffff;stop-opacity:1;"
         offset="0"
         id="stop2367" />
    </linearGradient>
    <linearGradient
       id="white_shade"
       gradientTransform="translate(-5.8013919e-8,2.1166665)">
      <stop
         style="stop-color:#cccccc;stop-opacity:1;"
         offset="0"
         id="stop45894" />
    </linearGradient>
    <linearGradient
       id="linearGradient45642">
      <stop
         style="stop-color:#000000;stop-opacity:0.2;"
         offset="0"
         id="stop45640" />
    </linearGradient>
    <linearGradient
       id="black_accent"
       gradientTransform="scale(0.07000432)">
      <stop
         style="stop-color:#8c8c8c;stop-opacity:1;"
         offset="0"
         id="stop52163" />
    </linearGradient>
    <linearGradient
       id="black_fill"
       gradientTransform="matrix(0.07000432,0,0,0.07000432,-53.975025,2.1166665)">
      <stop
         style="stop-color:#595959;stop-opacity:1;"
         offset="0"
         id="stop51990" />
    </linearGradient>
    <linearGradient
       xlink:href="#black_fill"
       id="linearGradient5966"
       x1="4.0848351"
       y1="8.8635406"
       x2="13.229165"
       y2="8.8635406"
       gradientUnits="userSpaceOnUse" />
    <linearGradient
       xlink:href="#black_accent"
       id="linearGradient6002"
       x1="4.7624993"
       y1="11.509374"
       x2="10.583332"
       y2="11.509374"
       gradientUnits="userSpaceOnUse" />
    <linearGradient
       xlink:href="#black_accent"
       id="linearGradient6004"
       x1="4.2333326"
       y1="5.953124"
       x2="9.8979397"
       y2="5.953124"
       gradientUnits="userSpaceOnUse" />
    <linearGradient
       xlink:href="#linearGradient45642"
       id="linearGradient27687"
       gradientUnits="userSpaceOnUse"
       gradientTransform="matrix(1,0,0,1.25,0.79374989,-3.0427069)"
       x1="4.2333326"
       y1="24.341663"
       x2="103.04872"
       y2="24.341663" />
  </defs>
  <metadata
     id="metadata505">
    <rdf:RDF>
      <cc:Work
         rdf:about="" />
    </rdf:RDF>
  </metadata>
  <g
     id="layer6"
     transform="translate(-17.991667,-17.991665)">
    <path
       style="font-variation-settings:normal;vector-effect:none;fill:url(#linearGradient27687);fill-opacity:1;stroke:none;stroke-width:1.25861;stroke-linecap:round;stroke-linejoin:round;stroke-miterlimit:4;stroke-dasharray:none;stroke-dashoffset:0;stroke-opacity:1;-inkscape-stroke:none;stop-color:#000000"
       d="m 5.0270826,14.816665 c 0,0.992188 2.645833,1.322916 4.2333328,1.322916 1.5874976,0 4.2333306,-0.330728 4.2333306,-1.322916 0,-0.992187 -2.778792,-1.322916 -4.2333306,-1.322916 -1.4545399,0 -4.2333328,0.330729 -4.2333328,1.322916 z"
       id="use175062"
       class="UnoptimicedTransforms"
       transform="matrix(1.0937503,0,0,0.99999995,16.726624,17.991665)" />
    <g
       id="g62410-91"
       style="display:inline"
       transform="translate(17.99167,17.991669)">
      <path
         style="display:inline;opacity:1;fill:url(#linearGradient5966);fill-opacity:1;stroke:none;stroke-width:1.05833;stroke-linecap:round;stroke-linejoin:round;stroke-dasharray:none;stroke-opacity:1"
         d="m 4.7624993,14.287498 c 1.5874998,0.529167 3.7041663,0.529167 3.7041663,0.529167 0,0 2.1166664,0 3.7041664,-0.529167 -0.79375,-2.38125 1.058333,-3.968749 1.058333,-6.3499991 0,-3.9687494 -4.7624995,-5.0270826 -4.7624995,-5.0270826 v 1.3229164 c 0,0 -3.9687496,2.9104163 -4.2333328,3.1749996 -0.2645832,0.2645833 -0.1183253,0.5570994 0,0.7937499 0.2645833,0.5291666 0.5291666,0.7937499 0.7937499,1.0583332 0.2645833,0.2645833 0.5291666,0.2645833 0.7937499,0 0.2645833,-0.2645833 0.7937499,-0.5291666 1.0583332,-0.5291666 0.2645833,0 1.0583332,0.2645833 1.3229165,0.2645833 0.2645833,0 1.3229165,-0.2645833 1.8520828,-0.7937499 C 8.7312488,9.5249987 7.9374989,9.5249987 7.143749,10.054165 6.3499991,10.583332 4.7624993,12.170832 4.7624993,14.287498 Z"
         id="path59942-5" />
      <path
         style="display:inline;opacity:1;fill:url(#linearGradient6004);fill-opacity:1;stroke:none;stroke-width:1.05833;stroke-linecap:round;stroke-linejoin:round;stroke-dasharray:none;stroke-opacity:1"
         d="M 8.4666655,3.1749996 C 9.789582,4.2333327 10.318749,5.0270826 9.5249987,5.5562492 8.7312488,6.0854158 6.8791657,6.3499991 4.7624993,8.7312488 L 4.2333327,7.4083323 8.4666655,4.2333327"
         id="path65088-1" />
      <path
         style="display:inline;opacity:1;fill:url(#linearGradient6002);fill-opacity:1;stroke:none;stroke-width:1.05833;stroke-linecap:round;stroke-linejoin:round;stroke-dasharray:none;stroke-opacity:1"
         d="M 6.6145824,14.816665 4.7624993,14.287498 c 0,-2.116666 1.5874998,-3.968749 2.3812497,-4.4979164 0.7937499,-0.5291663 2.1166666,-0.2645829 3.439583,-1.5874994 0,0.5291666 -1.8520833,1.8520828 -2.3812498,2.3812498 -0.7937499,0.79375 -1.5874998,2.645833 -1.5874998,4.233333 z"
         id="path65058-7" />
      <path
         style="display:inline;opacity:1;fill:none;fill-opacity:1;stroke:#000000;stroke-width:1.05833;stroke-linecap:round;stroke-linejoin:round;stroke-dasharray:none;stroke-opacity:1"
         d="m 4.7624993,14.287498 c 1.5874998,0.529167 3.7041663,0.529167 3.7041663,0.529167 0,0 2.1166664,0 3.7041664,-0.529167 -0.79375,-2.38125 1.058333,-3.968749 1.058333,-6.3499991 0,-3.9687494 -4.7624995,-5.0270826 -4.7624995,-5.0270826 v 1.3229164 c 0,0 -3.9687496,2.9104163 -4.2333328,3.1749996 -0.2645832,0.2645833 -0.1183253,0.5570994 0,0.7937499 0.2645833,0.5291666 0.5291666,0.7937499 0.7937499,1.0583332 0.2645833,0.2645833 0.5291666,0.2645833 0.7937499,0 0.2645833,-0.2645833 0.7937499,-0.5291666 1.0583332,-0.5291666 0.2645833,0 1.0583332,0.2645833 1.3229165,0.2645833 0.2645833,0 1.3229165,-0.2645833 1.8520828,-0.7937499 C 8.7312488,9.5249987 7.9374989,9.5249987 7.143749,10.054165 6.3499991,10.583332 4.7624993,12.170832 4.7624993,14.287498 Z"
         id="path64922-0" />
      <ellipse
         style="display:inline;opacity:1;fill:#000000;fill-opacity:1;stroke:none;stroke-width:1.05833;stroke-linecap:round;stroke-linejoin:round;stroke-dasharray:none;stroke-opacity:1"
         id="path63964-0"
         cy="6.0854158"
         cx="8.7312489"
         ry="0.52916658"
         rx="0.52916664" />
      <path
         style="display:inline;opacity:1;fill:none;fill-opacity:1;stroke:#000000;stroke-width:1.05833;stroke-linecap:butt;stroke-linejoin:round;stroke-dasharray:none;stroke-opacity:1"
         d="m 11.906248,12.699998 c -1.322916,0.529167 -3.4395825,0.529167 -3.4395825,0.529167 0,0 -1.8520831,10e-7 -3.1749996,-0.529166"
         id="path65119-8" />
    </g>
  </g>
</svg>
